X:1
T:Gesammelte Motetten
T:Lobe den Herrn, meine Seele
T:Johann Heinrich Rolle
T:Lobe den Herrn, meine Seele
T:CPDL - Creative Commons Attribution Non Commercial 3.0
T:CPDL - Creative Commons Attribution Non Commercial 3.0
T:CPDL - Creative Commons Attribution Non Commercial 3.0
T:CPDL - Creative Commons Attribution Non Commercial 3.0
T:CPDL - Creative Commons Attribution Non Commercial 3.0
T:CPDL - Creative Commons Attribution Non Commercial 3.0
T:CPDL - Creative Commons Attribution Non Commercial 3.0
T:CPDL - Creative Commons Attribution Non Commercial 3.0
C:Johann Heinrich Rolle
Z:CPDL - Creative Commons Attribution Non Commercial 3.0
%%score [ 1 2 3 ( 4 5 ) ]
L:1/8
M:4/4
K:G
V:1 treble nm="Sopran"
V:2 treble nm="Alt"
V:3 treble-8 nm="Tenor"
V:4 bass nm="Bass"
V:5 bass 
V:1
"^Solo" G4 cB AG | d4 d2 g2 | (3fed d2"^Tutti"!f! e2 ee | d2 gd (d2 c2) | B4 | z2"^Solo" B2- | %6
w: Lo- be _ den *|Herrn, mei- ne|See- * * le, lo- be den|Herrn, mei- ne See- *|le|und|
 B2 Bc cd de | (e2 d2) z2 c2- | c2 AB Bccd | cB B6- | B2"^Tutti"!f! g>g g2 BB | B2 A2 z4 | %12
w: _ was * in * mir *|ist, * sei-|* nen * hei- * li- gen|Na- * men,|_ sei- nen hei- li- gen|Na- men,|
 (d A2 d2 f2 a- | a g2 e2 g)fe | d2 dd d2 d2 | e2 e2 e2 ee | f2 f2 f2 ff | g2 g4 g2 | f2 e4 d2 | %19
w: lo- * * * *|* * * * be den|Herrn, mei- ne See- le,|lo- be, lo- be den|Herrn, den Herrn, mei- ne|See- le, den|Herrn, mei- ne|
 ^c>B A2 !fermata!z2"^Solo" e>f | fg g4"^Tutti" e>f | fg g4!f! g2 | f2 fe edd^c | d2 B2 z2 d2 | %24
w: See- * le und ver-|giss _ nicht, und ver-|giss _ nicht, was|er dir _ Gu- * tes ge-|tan hat, was|
 d2 d^c cBB^A | B2 F2 z2"^Solo" BB | B2 B2 B2 B2 | B4 B4 | B2 g4 f2 | e2"^Tutti" z2 z4 | %30
w: er dir _ Gu- * tes ge-|tan hat. Der dir|al- le dei- ne|Sün- de,|Sün- de ver-|gibt|
 z2!p!!<(! B2 B2 B2!<)! | cd e2 ed cB | c2 A2 c2 c2 | c4 dc BA | B2 A2 z4 |!f! D4 D4 | %36
w: und hei- let|al- le dei- ne _ Ge- *|bre- chen, al- le|dei- ne _ Ge- *|bre- chen,|der dein|
 D2 d2 c_B AG | D4 D2 D2 | D2 d2 c_B AG | g4 g2 g2 | (f4- f3 e/d/) | d4 z4 |"^Solo" z8 | z8 | z8 | %45
w: Le- ben vom * Ver- *|der- ben er-|lö- set, vom * Ver- *|der- ben er-|lö- * * *|set.||||
 z8 | z4"^Tutti" e4 | d2 gd dc cB | (B2 A2) z2"^Solo" A2 | A3 B cBdc | B8- | B3 c dced | c8- | %53
w: |mit|Gnad´ und Barm- her- * zig- *|keit, _ mit|Gna- * * * * *||||
 c2 ed dc cB | B2 d2 dc BA | G4 A4 | G4"^Tutti"!mf! d2 d2 |!<(! d8-!<)! | d8- | d4 d2!f! g2 | %60
w: * de _ und _ Barm- *|her- zig- keit, _ Barm- *|her- zig-|keit, der dich|krö-||* net mit|
 (3fed d4 dd | B2 d4 g2 | (3fed d4!f! f2 | !^!g4 d4 | z2 d2 deec | B4 A4 | !fermata!G4!p! ^c2 c2 | %67
w: Gna- * * de, der dich|krö- net mit|Gna- * * de, mit|Gna- de,|mit Gnad´ _ und Barm-|her- zig-|keit, und Barm-|
!<(! d8!<)! |!>(! F8!>)! |!<(!!>(! !fermata!G8!<)!!>)! |] %70
w: her-|zig-|keit.|
V:2
 z8 | z8 | z4!f! G2 GG | G2 GG (G2 F2) | G4 | z2 G2- | G2 GA AB Bc | (B2 A2) z2 A2- | A2 FG GAAB | %9
w: |||||||||
 AG G6- | G2!f! B>B B2 GG | G2 F2 z4 | A2 AA A2 AA | A2 A2 ABAG | F2 AA A2 A2 | A2 A2 A2 AA | %16
w: |||lo- be den Herrn mei- ne|See- le, lo- * be den|Herrn, mei- ne See- le,|lo- be, lo- be den|
 A2 A2 A2 AA | ^c2 c2 c2 cc | d2 ^c2 B2 BB | A2 A2 !fermata!z2 ^c>d | de e4 ^c>d | de e4!f! e2 | %22
w: Herrn, den Herrn, mei- ne|See- le, lo- be den|Herrn, den Herrn, mei- ne|See- le * *|||
 d2 d^c cBB^A | B2 B2 z2 B2 | B2 d^c cBB^A | B2 F2 z4 | z8 | z2 FF F2 F2 | G2 B2 B2 AA | G2 z2 z4 | %30
w: |||tan hat.||Der dir al- le|dei- ne Sün- de ver-|gibt|
 z2!p!!<(! ^G2 G2 G2!<)! | AB c2 cB A^G | A2 E2 A2 A2 | A4 BA GF | G2 F2 z4 |!f! D4 D4 | %36
w: ||||||
 D2 d2 c_B AG | D4 D2 D2 | D2 d2 c_B AG | G4 G2 G2 | (A4- A3 G/F/) | F4 z4 | z8 | z8 | z8 | z8 | %46
w: ||||||||||
 z4 G4 | G2 GB BA AG | (G2 F2) z2 F2 | F3 G AGBA | G8- | G3 A BAcB | A4 F4 | A2 cB BA AG | %54
w: ||||||||
 G2 G2 G2 E2 | D4 F4 | G4!mf! G2 G2 | G D2 G2 B2 d- | d c2 A2 c BA | G2 G!f!G G2 G2 | A2 A2 A2 GF | %61
w: ||keit, der dich|krö- * * * *||* net mit Gna- de|und Barm- her- zig- *|
 G2 BB B2 BB | A2 A4!f! A2 | !^!G4 G4 | z2 G2 G2 GG | G4 F4 | !fermata!G4!p! G2 G2 |!<(! G8!<)! | %68
w: keit, der dich krö- net mit|Gna- de, mit|Gna- de,|||||
!>(! D8!>)! |!<(!!>(! !fermata!D8!<)!!>)! |] %70
w: ||
V:3
 z8 | z8 | z4!f! c2 cc | B2 dd (e2 d2) | d4 | z2 z2 | z8 | z8 | z8 | z8 | z2!f! e>e e2 eg | %11
w: ||lo- be den|Herrn, mei- ne See- *|le,||||||sei- nen hei- li- gen|
 d2 d2 z4 | f2 ff f (d2 f- | f e2) ^c c2 dc | d2 dd f2 f2 | ^c2 c2 c2 cc | d2 d2 d2 dd | %17
w: Na- men,|lo- be den Herrn, lo- *|* * be, lo- be den||||
 e2 e2 e2 ee | d2 e2 e2 ee | e>d ^c2 !fermata!z2 z2 | z2"^Solo" e>d d^c c2 | %21
w: |||und ver giss _ nicht,|
 z2"^Tutti" e>d d^cc!f!c | d2 g2 f2 ff | f2 d2 g4 | f2 fe edd^c | d2 d2 z4 | z8 | z2 ^dd d2 d2 | %28
w: und ver- giss _ nicht, was|er dir Gu- tes ge-|tan hat, was|er dir _ Gu- * tes ge-|tan hat.||Der dir al- le|
 e2 e2 e2 ^dd | e2!p! e2 e2 e2 | e4 e4 | ee e2 e2 e2 | e2 e2 e2 e2 | d4 d2 d2 | d2 d2 z4 | %35
w: dei- ne Sün- de ver-|gibt und hei- let|al- le,|al- le dei- ne Ge-|bre- chen, al- le|dei- ne Ge-|bre- chen,|
!f! D4 D4 | D2 d2 c_B AG | D4 D2 D2 | D2 d2 c_B AG | ^c4 c2 c2 | d8 | d4 z4 | G4 B4 | d4 d2 g2 | %44
w: der dein|Le- ben vom * Ver- *|der- ben er-|lö- set, vom * Ver- *|der- ben er-|lö-|set.|Der dich|krö- net mit|
 (3fed d4 e2 | d2 gd d2 d/c/B/c/ | (c2 B2) c4 | d2 dd e2 e2 | d4 z4 | z4 d2 d2 | d4 d2 d2 | %51
w: Gna- * * de, mit|Gnad´ und Barm- her- zig- * * *|keit, _ mit|Gnad´ und Barm- her- zig-|keit,|der dich|krö- net mit|
 d2 d2 d2 d2 | d4 d4 | d4 z2 d2 | d2 d2 e2 c2 | B4 c4 | B4!mf! B2 B2 | B2 BB B d2 B- | %58
w: Gna- de und Barm-|her- zig-|keit, Barm-|her- zig- keit, Barm-|her- zig-|keit, der dich|krö- net, dich krö- * *|
 B A2 c2 e dc | B2 B!f!B B2 d2 | d2 f2 f2 d2 | d2 dd d2 dd | d2 f4!f! d2 | !^!d4 d4 | z2 d2 c2 ce | %65
w: |* net mit Gna- de|und Barm- her- zig-|keit, der dich krö- net mit|Gna- de, mit|Gna- de,|mit Gnad´ und Barm-|
 d4 c4 | !fermata!B4!p! G2 G2 |!<(! B8!<)! |!>(! A8!>)! |!>(!!<(! !fermata!B8!>)!!<)! |] %70
w: her- zig-|keit, und Barm-|her-|zig-|keit.|
V:4
 z8 | z8 | z4!f! C2 C,E, | G,2 B,B, (A,2 D,2) | G,4 | z2 z2 | z8 | D,2 D,F, F,A, A,F, | D,4 z4 | %9
w: |||||||und was * in * mir *|ist|
 G,2 G,B, B,G,G,E, | x2!f! ^C>C C2 ^C,C, | D,2 D,2 z4 | D8 | A,8 | (D, F,2 A,2 D2 ^C/B,/ | %15
w: sei- nen * hei- * li- gen|||lo-|be,|lo- * * * * *|
 A, A,2 E,2 A, A,/G,/F,/E,/ | D, F,2 A,2 D2 ^C/B,/ | A, A,2 E,2 A, A,/G,/F,/E,/ | %18
w: |||
 D,2) A,A, ^G,2 G,G, | A,2 A,,2 !fermata!z2 z2 | z2 ^C>B, B,^A, A,2 | z2 ^C>B, B,^A,A,!f!A, | %22
w: * be den Herrn, mei- ne|Se- le|||
 B,2 E,2 F,2 F,F, | B,2 B,,2 z2 E,2 | D,2 F,2 F,2 F,F, | B,2 B,,2 z4 | z8 | z2 A,A, A,2 A,2 | %28
w: |* * was|||||
 G,2 E,2 B,2 B,,B,, | E,2 z2 z4 | z2!p!!<(! D2 D2 D2!<)! | =CB, A,2 E,2 E,2 | A,2 CB, A,2 G,2 | %33
w: ||und hei- let|||
 F,4 D,2 D,2 | G,2 D,2 z4 |!f! D,4 D,4 | D,2 D2 C_B, A,G, | D,4 D,2 D,2 | D,2 D2 C_B, A,G, | %39
w: ||||||
 _E,4 E,2 E,2 | D,8 | D,4 z4 | z8 | z8 | z8 | z8 | z4 C4 | B,2 B,,B,, C,2 C,2 | %48
w: |||||||||
 D,2"^Solo" D,F, F,A, A,F, | D,8- | D,2- D,G, G,B,B,G, | D,8- | D,2 F,A, A,C CA, | F,4 F,2 F,2 | %54
w: * mit _ Gna- * de, _|Gna-||||de und *|
 G,2 B,,2 C,2 C,2 | D,4 D,4 | G,4 z4 |!mf! G,4 G,4 | D,4 D,2 z2 | G, D,2 G,2 B,2 D- | %60
w: |||der dich|krö- net,|krö- * * * *|
 D C2 A,2 C B,A, | G, D,2 G,2 B,2 D- | D C2 A,2 CB,!f!A, | !^!B,4 B,4 | z2 B,2 C2 C,C, | D,4 D,4 | %66
w: ||* * * * net mit|Gna- de,|||
 !fermata!E,4!p! E,2 E,2 |!<(! D,8!<)! |!>(! D,8!>)! |!<(!!>(! !fermata![G,,G,]8!<)!!>)! |] %70
w: ||||
V:5
 x8 | x8 | x8 | x8 | x4 | x4 | x8 | x8 | x8 | x8 | ^C,2 ^C3/2 x9/2 | x8 | x8 | x8 | x8 | x8 | x8 | %17
w: ||||||||||Na- men.|||||||
 x8 | x8 | x8 | x8 | x8 | x8 | x8 | x8 | x8 | x8 | x8 | x8 | x8 | x8 | x8 | x8 | x8 | x8 | x8 | %36
w: |||||||||||||||||||
 x8 | x8 | x8 | x8 | x8 | x8 | x8 | x8 | x8 | x8 | x8 | x8 | x8 | x8 | x8 | x8 | x8 | x8 | x8 | %55
w: |||||||||||||||||||
 x8 | x8 | x8 | x8 | x8 | x8 | x8 | x8 | x8 | x8 | x8 | x8 | x8 | x8 | x8 |] %70
w: |||||||||||||||

